X: 1189
T:The Hare in the Corn
M:6/8
L:1/8
S:Dermy Diamond, Belfast (fiddle)
R:Slide
D:Private tape - Milltown Malbay 1985
N:As played
Z:Bernie Stocks
K:D
FAA AFA | BdB AFD | AEAFAF AEADAE | AFADAD A2D2AE |FAA AFA |\
BGG AFA | Bcd efe | dzA (3BABA | FAA AFA | BdB AFD | FEE {F}EDE | FDC D2E |\
FAA AFA | BdB AFA | Bcd efe | d3 d2g || {a}f3 faf | g2e ede | faf fef |\
A3a3 aba | {a}f3 faf | g2e edB | ABd efe |1 d3 d2g :|2 d3 d2A ||
